app/assets/icons/polaris/CartMajor.svg

<svg viewBox="0 0 20 20" xmlns="http://www.w3.org/2000/svg"><path fill-rule="evenodd" d="M1 1c0-.552.45-1 1.004-1h1.505c.831 0 1.505.672 1.505 1.5v.56l12.574.908c.877.055 1.52.843 1.397 1.71l-.866 6.034a1.504 1.504 0 0 1-1.489 1.288h-11.616v2h10.043a3.005 3.005 0 0 1 3.011 3c0 1.657-1.348 3-3.01 3a3.005 3.005 0 0 1-2.84-4h-5.368a3.005 3.005 0 0 1-2.84 4 3.005 3.005 0 0 1-3.01-3c0-1.306.838-2.418 2.007-2.83v-12.17h-1.003a1.002 1.002 0 0 1-1.004-1zm4.014 3.064v5.936h11.18l.727-5.07-11.907-.866zm9.04 12.936c0-.552.449-1 1.003-1 .554 0 1.004.448 1.004 1s-.45 1-1.004 1a1.002 1.002 0 0 1-1.003-1zm-11.047 0c0-.552.45-1 1.004-1s1.003.448 1.003 1-.449 1-1.003 1a1.002 1.002 0 0 1-1.004-1z"/></svg>

<svg viewBox="0 0 20 20" xmlns="http://www.w3.org/2000/svg"><path fill-rule="evenodd" d="M1 1c0-.552.45-1 1.004-1h1.505c.831 0 1.505.672 1.505 1.5v.56l12.574.908c.877.055 1.52.843 1.397 1.71l-.866 6.034A1.504 1.504 0 0 1 16.63 12H5.014v2h10.043a3.005 3.005 0 0 1 3.011 3c0 1.657-1.348 3-3.01 3a3.005 3.005 0 0 1-2.84-4H6.85a3.005 3.005 0 0 1-2.84 4A3.005 3.005 0 0 1 1 17c0-1.306.838-2.418 2.007-2.83V2H2.004A1.002 1.002 0 0 1 1 1zm4.014 3.064V10h11.18l.727-5.07-11.907-.866zM14.054 17c0-.552.449-1 1.003-1 .554 0 1.004.448 1.004 1s-.45 1-1.004 1a1.002 1.002 0 0 1-1.003-1zM3.007 17c0-.552.45-1 1.004-1s1.003.448 1.003 1-.449 1-1.003 1a1.002 1.002 0 0 1-1.004-1z"/></svg>
